svgs/sharp-light/conveyor-belt-arm.svg

<svg xmlns="http://www.w3.org/2000/svg" viewBox="0 0 640 512"><!--! Font Awesome Pro 6.6.0 by @fontawesome - https://fontawesome.com License - https://fontawesome.com/license (Commercial License) Copyright 2024 Fonticons, Inc. --><path d="M128 0l0 32 16 0 77.1 0-5.5 32.7C193.1 68.7 176 88.3 176 112c0 26.5 21.5 48 48 48c18.6 0 34.8-10.6 42.8-26.2L448 158l0 50 0 16 32 0 0-16 0-64 0-14-13.9-1.9L271 102.1c-2.9-13.8-11.7-25.5-23.8-32.1l6.3-38L336 32l16 0 0-32L336 0 144 0 128 0zm72 112a24 24 0 1 1 48 0 24 24 0 1 1 -48 0zM480 288l0 32-32 0 0-32 32 0zm-64 0l0 32-64 0 0-32 0-32-32 0-32 0-32 0 0 32 0 32-64 0 0-32 0-32-32 0-32 0-32 0 0 32 0 32c-53 0-96 43-96 96s43 96 96 96l448 0c53 0 96-43 96-96s-43-96-96-96l-32 0 0-32 0-32-32 0-32 0-32 0 0 32zM96 352l32 0 32 0 32 0 64 0 32 0 32 0 32 0 64 0 32 0 32 0 32 0 32 0c35.3 0 64 28.7 64 64s-28.7 64-64 64L96 480c-35.3 0-64-28.7-64-64s28.7-64 64-64zm64-64l0 32-32 0 0-32 32 0zm128 32l0-32 32 0 0 32-32 0zM128 440a24 24 0 1 0 0-48 24 24 0 1 0 0 48zm216-24a24 24 0 1 0 -48 0 24 24 0 1 0 48 0zm168 24a24 24 0 1 0 0-48 24 24 0 1 0 0 48z"/></svg>

<svg xmlns="http://www.w3.org/2000/svg" viewBox="0 0 640 512"><!--! Font Awesome Pro 6.4.0 by @fontawesome - https://fontawesome.com License - https://fontawesome.com/license (Commercial License) Copyright 2023 Fonticons, Inc. --><path d="M128 0V32h16 77.1l-5.5 32.7C193.1 68.7 176 88.3 176 112c0 26.5 21.5 48 48 48c18.6 0 34.8-10.6 42.8-26.2L448 158v50 16h32V208 144 130l-13.9-1.9L271 102.1c-2.9-13.8-11.8-25.5-23.8-32.1l6.3-38H336h16V0H336 144 128zm72 112a24 24 0 1 1 48 0 24 24 0 1 1 -48 0zM480 288v32H448V288h32zm-64 0v32H352V288 256H320 288 256v32 32H192V288 256H160 128 96v32l0 32c-53 0-96 43-96 96s43 96 96 96H544c53 0 96-43 96-96s-43-96-96-96H512V288 256H480 448 416v32zM96 352h32 32 32 64 32 32 32 64 32 32 32 32c35.3 0 64 28.7 64 64s-28.7 64-64 64H96c-35.3 0-64-28.7-64-64s28.7-64 64-64zm64-64v32H128V288h32zm128 32V288h32v32H288zM128 440a24 24 0 1 0 0-48 24 24 0 1 0 0 48zm216-24a24 24 0 1 0 -48 0 24 24 0 1 0 48 0zm168 24a24 24 0 1 0 0-48 24 24 0 1 0 0 48z"/></svg>
